X:73
T:Marquis of Granby's Rant
M:2/4
L:1/8
B:Thompson's Compleat Collection of 200 Favourite Country Dances, vol. 2 (London, 1765)
Z:Transcribed and edited by Flynn Titford-Mock, 2007
Z:abc's:AK/Fiddler's Companion
K:G
G2G2\G>Bd>B | A2 A>B | c>de>g | G2G2 | G>Bd>B | A>Bc>e | d>B G2 :|
|: gaga | gagd | gaga | gaba | gaga | gagd | (e/f/g) g>d | B>G G2 :|

